Origami/16x16/apps/gdevilspie.svg

<svg width="16" height="16" version="1.1" viewBox="0 0 16 16" xmlns="http://www.w3.org/2000/svg">
 <path d="m8.0000004 16c-0.3861852 0-0.807472-0.433156-1.1889028-0.493569-0.38143-0.060412-0.91595 0.221359-1.2832332 0.102021-0.367284-0.119338-0.6340992-0.661478-0.9781924-0.836802-0.3440932-0.175325-0.939524-0.07252-1.251954-0.299514s-0.3986556-0.82505-0.6717296-1.098125c-0.273074-0.273073-0.8711305-0.359299-1.0981242-0.671729-0.2269939-0.31243-0.1241896-0.907861-0.2995139-1.251954-0.1753243-0.344094-0.7174647-0.610908-0.83680238-0.978192-0.11933772-0.367284 0.16243332-0.901804 0.10202064-1.2832344-0.0604126-0.38143-0.49356856-0.8027168-0.49356856-1.1889012 0-0.3861852 0.433156-0.807472 0.49356864-1.1889028 0.0604126-0.38143-0.22135852-0.91595-0.10202084-1.2832332 0.11933776-0.367284 0.6614784-0.6340992 0.8368028-0.9781924 0.1753242-0.3440932 0.0725196-0.939524 0.2995133-1.251954 0.2269939-0.31243 0.8250507-0.3986556 1.0981249-0.6717296 0.2730736-0.273074 0.3592988-0.8711305 0.6717292-1.0981242 0.31243-0.2269939 0.9078612-0.1241896 1.2519544-0.2995139s0.610908-0.7174647 0.9781916-0.83680238c0.3672836-0.11933772 0.901804 0.16243332 1.2832344 0.10202064 0.38143-0.0604126 0.8027168-0.49356856 1.1889012-0.49356856 0.3861852 0 0.807472 0.433156 1.1889028 0.49356864 0.38143 0.0604126 0.9159496-0.22135852 1.2832336-0.10202084 0.367284 0.11933776 0.634099 0.6614784 0.978192 0.8368028 0.344093 0.1753242 0.939524 0.07252 1.251954 0.2995133 0.31243 0.2269939 0.398656 0.8250507 0.67173 1.0981249 0.273074 0.2730736 0.87113 0.3592988 1.098124 0.6717292 0.226994 0.31243 0.124189 0.9078612 0.299514 1.2519544 0.175324 0.3440932 0.717464 0.610908 0.836802 0.9781916s-0.162433 0.901804-0.10202 1.2832344c0.060412 0.38143 0.493568 0.8027168 0.493568 1.1889012 0 0.3861852-0.433156 0.807472-0.493569 1.1889028-0.06041 0.38143 0.221359 0.9159496 0.102021 1.2832336s-0.661478 0.634099-0.836802 0.978192c-0.175325 0.344093-0.07252 0.939524-0.299514 1.251954s-0.82505 0.398656-1.098125 0.67173c-0.273073 0.273074-0.359299 0.87113-0.671729 1.098124s-0.907861 0.124189-1.251954 0.299514c-0.344094 0.175324-0.610908 0.717464-0.978192 0.836802s-0.901804-0.162433-1.2832344-0.10202c-0.38143 0.060412-0.8027168 0.493568-1.1889012 0.493568z" style="fill-rule:evenodd;fill:#ff8e03"/>
 <path d="m14.082995 0c1.395999 1.36 1.395999 5.44-1.395998 6.8l-2.791997-2.7199996c2.791997 0 4.187995-2.7200004 4.187995-4.0800004z" style="fill:#f95050"/>
 <path d="m1.9169677 0c-1.3959987 1.36-1.3959987 5.44 1.3959987 6.8l2.7919968-2.7199996c-2.7919968 0-4.1879955-2.7200004-4.1879955-4.0800004z" style="fill:#f95050"/>
 <path d="m8 14c-0.2896388 0-0.6056036-0.324867-0.8916765-0.370177-0.2860729-0.045309-0.6869625 0.16602-0.9624255 0.076516-0.2754626-0.089503-0.4755739-0.496109-0.733644-0.627601-0.2580698-0.131494-0.704643-0.05439-0.9389655-0.224636-0.2343225-0.170245-0.2989916-0.618788-0.5037971-0.823594-0.2048055-0.204805-0.6533479-0.269474-0.8235934-0.503796-0.1702451-0.234323-0.0931421-0.680896-0.2246351-0.938966-0.1314934-0.25807-0.5380987-0.458181-0.6276019-0.733644-0.0895033-0.2754626 0.121825-0.676353 0.0765155-0.9624259-0.0453095-0.2860725-0.3701765-0.6020373-0.3701765-0.8916761 0-0.2896387 0.3248671-0.6056036 0.3701766-0.8916765 0.0453094-0.2860729-0.166019-0.6869625-0.0765158-0.9624255 0.0895033-0.2754626 0.4961091-0.4755739 0.6276021-0.733644 0.1314934-0.2580697 0.0543896-0.704643 0.2246351-0.9389655s0.6187879-0.2989916 0.8235934-0.5037971 0.2694742-0.6533479 0.5037971-0.8235934c0.2343225-0.1702451 0.6808957-0.0931421 0.9389659-0.2246351 0.2580697-0.1314934 0.458181-0.5380987 0.7336436-0.6276019 0.2754626-0.0895033 0.676353 0.121825 0.9624259 0.0765155 0.2860725-0.0453095 0.6020373-0.3701765 0.8916761-0.3701765s0.6056036 0.3248671 0.8916765 0.3701766c0.2860729 0.045309 0.6869625-0.166019 0.9624255-0.076516s0.475574 0.4961091 0.733644 0.6276021c0.25807 0.1314934 0.704643 0.05439 0.938966 0.2246351 0.234322 0.1702455 0.298991 0.6187879 0.503796 0.8235934 0.204806 0.2048055 0.653349 0.2694742 0.823594 0.5037971 0.170246 0.2343225 0.09314 0.6808958 0.224636 0.9389659 0.131492 0.2580697 0.538098 0.458181 0.627601 0.7336436 0.0895 0.2754626-0.121825 0.676353-0.07652 0.9624259 0.045314 0.2860727 0.370181 0.6020376 0.370181 0.8916763 0 0.2896388-0.324867 0.6056036-0.370177 0.8916765s0.16602 0.6869625 0.07652 0.9624255-0.496109 0.475574-0.627602 0.733644-0.05439 0.704643-0.224635 0.938966c-0.170245 0.234322-0.618788 0.298991-0.823594 0.503796-0.204805 0.204806-0.269474 0.653349-0.503796 0.823594-0.234323 0.170246-0.680896 0.09314-0.938967 0.224636-0.25807 0.131492-0.458181 0.538098-0.7336442 0.627601-0.2754654 0.089504-0.6763558-0.121825-0.9624287-0.076516-0.2860725 0.04531-0.6020374 0.370177-0.8916761 0.370177z" style="fill-rule:evenodd;fill:#ffd059"/>
 <path d="m7.9999997 7s-0.5767295-0.8771015-0.733734-1.276705c-0.1570095-0.399604-0.3274554-0.8063724-0.2445794-1.0943199 0.08288-0.287943 0.2158149-0.4380655 0.4891579-0.5471565 0.273342-0.1090913 0.704971-0.1090925 0.978312 0 0.273342 0.109091 0.406279 0.259214 0.489157 0.5471565 0.082877 0.2879475-0.087568 0.6947154-0.244578 1.0943204-0.157005 0.399603-0.7337355 1.2767045-0.7337355 1.2767045z" style="opacity:.4"/>
 <path d="m7.9999997 8.9999997s-0.5767295 0.8771015-0.733734 1.2767053c-0.1570095 0.399604-0.3274554 0.806372-0.2445794 1.09432 0.08288 0.287943 0.2158149 0.438065 0.4891579 0.547156 0.273342 0.109091 0.704971 0.109093 0.978312 0 0.273342-0.109091 0.406279-0.259214 0.489157-0.547156 0.082877-0.287948-0.087568-0.694716-0.244578-1.094321-0.157005-0.3996028-0.7337355-1.2767043-0.7337355-1.2767043z" style="opacity:.4"/>
 <path d="m9 7.9999995s0.8771015-0.5767295 1.276705-0.733734c0.399604-0.1570095 0.806372-0.3274554 1.09432-0.2445794 0.287943 0.08288 0.438065 0.2158149 0.547156 0.4891579 0.109092 0.273342 0.109093 0.704971 0 0.978312-0.109091 0.273342-0.259214 0.406279-0.547156 0.489157-0.287948 0.082877-0.694715-0.087568-1.09432-0.244578-0.3996035-0.157005-1.276705-0.7337355-1.276705-0.7337355z" style="opacity:.4"/>
 <path d="m7.0000003 7.9999995s-0.8771015-0.5767295-1.2767053-0.733734c-0.399604-0.1570095-0.806372-0.3274554-1.09432-0.2445794-0.287943 0.08288-0.438065 0.2158149-0.547156 0.4891579-0.109091 0.273342-0.109093 0.704971 0 0.978312 0.109091 0.273342 0.259214 0.406279 0.547156 0.489157 0.287948 0.082877 0.694716-0.087568 1.094321-0.244578 0.3996028-0.157005 1.2767043-0.7337355 1.2767043-0.7337355z" style="opacity:.4"/>
 <path d="m8.7071075 8.7071063s1.0280138 0.212395 1.4215955 0.3839384c0.393585 0.1715403 0.801737 0.3386455 0.946744 0.6008573 0.145002 0.2622115 0.157155 0.462363 0.04101 0.732785-0.116143 0.270421-0.42135 0.57563-0.691772 0.691771-0.27042 0.116143-0.4705741 0.103991-0.7327838-0.04101-0.2622105-0.145009-0.4293161-0.55316-0.6008566-0.946746-0.1715427-0.3935813-0.3839371-1.4215957-0.3839371-1.4215957z" style="opacity:.4"/>
 <path d="m7.2928942 7.2928929s-0.2123951-1.0280137-0.3839387-1.4215952c-0.1715402-0.3935852-0.3386452-0.8017371-0.6008574-0.9467449-0.2622114-0.1450014-0.4623629-0.1571545-0.7327845-0.0410108-0.270421 0.116143-0.5756302 0.4213493-0.6917711 0.691771-0.116143 0.270421-0.1039907 0.4705746 0.0410115 0.732784 0.1450071 0.2622128 0.5531583 0.4293184 0.9467446 0.600859 0.3935811 0.1715425 1.4215956 0.3839369 1.4215956 0.3839369z" style="opacity:.4"/>
 <path d="m7.2928937 8.7071063s-1.0280138 0.212395-1.4215951 0.3839384c-0.3935851 0.1715403-0.8017373 0.3386455-0.9467447 0.6008573-0.1450015 0.2622115-0.1571549 0.462363-0.0410112 0.732785 0.1161427 0.270421 0.4213497 0.57563 0.691771 0.691771 0.270421 0.116143 0.4705746 0.103991 0.7327843-0.04101 0.2622125-0.145009 0.4293181-0.55316 0.6008586-0.946746 0.1715427-0.3935813 0.3839371-1.4215957 0.3839371-1.4215957z" style="opacity:.4"/>
 <path d="m8.707107 7.2928929s0.2123951-1.0280137 0.3839387-1.4215952c0.1715402-0.3935852 0.3386452-0.8017371 0.6008574-0.9467449 0.2622114-0.1450014 0.4623629-0.1571545 0.7327849-0.0410108 0.270421 0.116143 0.57563 0.4213493 0.691771 0.691771 0.116143 0.270421 0.10399 0.4705746-0.04101 0.732784-0.145009 0.2622128-0.55316 0.4293184-0.946746 0.600859-0.3935815 0.1715425-1.421596 0.3839369-1.421596 0.3839369z" style="opacity:.4"/>
</svg>

<svg xmlns="http://www.w3.org/2000/svg" width="16" height="16" version="1.1" viewBox="0 0 16 16">
 <path d="M 8.0000004,16 C 7.6138152,16 7.1925284,15.566844 6.8110976,15.506431 6.4296676,15.446019 5.8951476,15.72779 5.5278644,15.608452 5.1605804,15.489114 4.8937652,14.946974 4.549672,14.77165 4.2055788,14.596325 3.610148,14.69913 3.297718,14.472136 2.985288,14.245142 2.8990624,13.647086 2.6259884,13.374011 2.3529144,13.100938 1.7548579,13.014712 1.5278642,12.702282 1.3008703,12.389852 1.4036746,11.794421 1.2283503,11.450328 1.053026,11.106234 0.5108856,10.83942 0.39154792,10.472136 0.2722102,10.104852 0.55398124,9.570332 0.49356856,9.1889016 0.43315596,8.8074716 0,8.3861848 0,8.0000004 0,7.6138152 0.433156,7.1925284 0.49356864,6.8110976 0.55398124,6.4296676 0.27221012,5.8951476 0.3915478,5.5278644 0.51088556,5.1605804 1.0530262,4.8937652 1.2283506,4.549672 1.4036748,4.2055788 1.3008702,3.610148 1.5278639,3.297718 1.7548578,2.985288 2.3529146,2.8990624 2.6259888,2.6259884 2.8990624,2.3529144 2.9852876,1.7548579 3.297718,1.5278642 3.610148,1.3008703 4.2055792,1.4036746 4.5496724,1.2283503 4.8937656,1.053026 5.1605804,0.5108856 5.527864,0.39154792 5.8951476,0.2722102 6.429668,0.55398124 6.8110984,0.49356856 7.1925284,0.43315596 7.6138152,0 7.9999996,0 c 0.3861852,0 0.807472,0.433156 1.1889028,0.49356864 0.38143,0.0604126 0.9159496,-0.22135852 1.2832336,-0.10202084 0.367284,0.11933776 0.634099,0.6614784 0.978192,0.8368028 0.344093,0.1753242 0.939524,0.07252 1.251954,0.2995133 0.31243,0.2269939 0.398656,0.8250507 0.67173,1.0981249 0.273074,0.2730736 0.87113,0.3592988 1.098124,0.6717292 0.226994,0.31243 0.124189,0.9078612 0.299514,1.2519544 0.175324,0.3440932 0.717464,0.610908 0.836802,0.9781916 0.119338,0.3672836 -0.162433,0.901804 -0.10202,1.2832344 C 15.566844,7.1925284 16,7.6138152 16,7.9999996 c 0,0.3861852 -0.433156,0.807472 -0.493569,1.1889028 -0.06041,0.38143 0.221359,0.9159496 0.102021,1.2832336 -0.119338,0.367284 -0.661478,0.634099 -0.836802,0.978192 -0.175325,0.344093 -0.07252,0.939524 -0.299514,1.251954 -0.226994,0.31243 -0.82505,0.398656 -1.098125,0.67173 -0.273073,0.273074 -0.359299,0.87113 -0.671729,1.098124 -0.31243,0.226994 -0.907861,0.124189 -1.251954,0.299514 -0.344094,0.175324 -0.610908,0.717464 -0.978192,0.836802 C 10.104852,15.72779 9.570332,15.446019 9.1889016,15.506432 8.8074716,15.566844 8.3861848,16 8.0000004,16 Z" style="fill:#ff8e03;fill-rule:evenodd"/>
 <path d="m 14.082995,0 c 1.395999,1.36 1.395999,5.44 -1.395998,6.8 L 9.895,4.0800004 C 12.686997,4.0800004 14.082995,1.36 14.082995,0 Z" style="fill:#f95050"/>
 <path d="M 1.9169677,0 C 0.52096897,1.36 0.52096897,5.44 3.3129664,6.8 L 6.1049632,4.0800004 C 3.3129664,4.0800004 1.9169677,1.36 1.9169677,0 Z" style="fill:#f95050"/>
 <path d="M 8,14 C 7.7103612,14 7.3943964,13.675133 7.1083235,13.629823 6.8222506,13.584514 6.421361,13.795843 6.145898,13.706339 5.8704354,13.616836 5.6703241,13.21023 5.412254,13.078738 5.1541842,12.947244 4.707611,13.024348 4.4732885,12.854102 4.238966,12.683857 4.1742969,12.235314 3.9694914,12.030508 3.7646859,11.825703 3.3161435,11.761034 3.145898,11.526712 2.9756529,11.292389 3.0527559,10.845816 2.9212629,10.587746 2.7897695,10.329676 2.3831642,10.129565 2.293661,9.854102 2.2041577,9.5786394 2.415486,9.177749 2.3701765,8.8916761 2.324867,8.6056036 2,8.2896388 2,8 2,7.7103613 2.3248671,7.3943964 2.3701766,7.1083235 2.415486,6.8222506 2.2041576,6.421361 2.2936608,6.145898 2.3831641,5.8704354 2.7897699,5.6703241 2.9212629,5.412254 3.0527563,5.1541843 2.9756525,4.707611 3.145898,4.4732885 3.3161435,4.238966 3.7646859,4.1742969 3.9694914,3.9694914 4.1742969,3.7646859 4.2389656,3.3161435 4.4732885,3.145898 4.707611,2.9756529 5.1541842,3.0527559 5.4122544,2.9212629 5.6703241,2.7897695 5.8704354,2.3831642 6.145898,2.293661 6.4213606,2.2041577 6.822251,2.415486 7.1083239,2.3701765 7.3943964,2.324867 7.7103612,2 8,2 8.2896388,2 8.6056036,2.3248671 8.8916765,2.3701766 9.1777494,2.4154856 9.578639,2.2041576 9.854102,2.2936606 c 0.275463,0.089503 0.475574,0.4961091 0.733644,0.6276021 0.25807,0.1314934 0.704643,0.05439 0.938966,0.2246351 0.234322,0.1702455 0.298991,0.6187879 0.503796,0.8235934 0.204806,0.2048055 0.653349,0.2694742 0.823594,0.5037971 0.170246,0.2343225 0.09314,0.6808958 0.224636,0.9389659 0.131492,0.2580697 0.538098,0.458181 0.627601,0.7336436 0.0895,0.2754626 -0.121825,0.676353 -0.07652,0.9624259 C 13.675133,7.3943964 14,7.7103613 14,8 c 0,0.2896388 -0.324867,0.6056036 -0.370177,0.8916765 -0.04531,0.2860729 0.16602,0.6869625 0.07652,0.9624255 -0.0895,0.275463 -0.496109,0.475574 -0.627602,0.733644 -0.131493,0.25807 -0.05439,0.704643 -0.224635,0.938966 -0.170245,0.234322 -0.618788,0.298991 -0.823594,0.503796 -0.204805,0.204806 -0.269474,0.653349 -0.503796,0.823594 -0.234323,0.170246 -0.680896,0.09314 -0.938967,0.224636 -0.25807,0.131492 -0.458181,0.538098 -0.7336442,0.627601 C 9.5786394,13.795843 9.177749,13.584514 8.8916761,13.629823 8.6056036,13.675133 8.2896387,14 8,14 Z" style="fill:#ffd059;fill-rule:evenodd"/>
 <path d="m 7.9999997,7 c 0,0 -0.5767295,-0.8771015 -0.733734,-1.276705 C 7.1092562,5.323691 6.9388103,4.9169226 7.0216863,4.6289751 c 0.08288,-0.287943 0.2158149,-0.4380655 0.4891579,-0.5471565 0.273342,-0.1090913 0.704971,-0.1090925 0.978312,0 0.273342,0.109091 0.406279,0.259214 0.489157,0.5471565 0.082877,0.2879475 -0.087568,0.6947154 -0.244578,1.0943204 C 8.5767302,6.1228985 7.9999997,7 7.9999997,7 Z" style="opacity:0.4"/>
 <path style="opacity:0.4" d="m 7.9999997,8.9999997 c 0,0 -0.5767295,0.8771015 -0.733734,1.2767053 -0.1570095,0.399604 -0.3274554,0.806372 -0.2445794,1.09432 0.08288,0.287943 0.2158149,0.438065 0.4891579,0.547156 0.273342,0.109091 0.704971,0.109093 0.978312,0 0.273342,-0.109091 0.406279,-0.259214 0.489157,-0.547156 0.082877,-0.287948 -0.087568,-0.694716 -0.244578,-1.094321 C 8.5767302,9.8771012 7.9999997,8.9999997 7.9999997,8.9999997 Z"/>
 <path style="opacity:0.4" d="m 9,7.9999995 c 0,0 0.8771015,-0.5767295 1.276705,-0.733734 0.399604,-0.1570095 0.806372,-0.3274554 1.09432,-0.2445794 0.287943,0.08288 0.438065,0.2158149 0.547156,0.4891579 0.109092,0.273342 0.109093,0.704971 0,0.978312 C 11.80909,8.762498 11.658967,8.895435 11.371025,8.978313 11.083077,9.06119 10.67631,8.890745 10.276705,8.733735 9.8771015,8.57673 9,7.9999995 9,7.9999995 Z"/>
 <path d="m 7.0000003,7.9999995 c 0,0 -0.8771015,-0.5767295 -1.2767053,-0.733734 C 5.323691,7.109256 4.916923,6.9388101 4.628975,7.0216861 4.341032,7.1045661 4.19091,7.237501 4.081819,7.510844 c -0.109091,0.273342 -0.109093,0.704971 0,0.978312 C 4.19091,8.762498 4.341033,8.895435 4.628975,8.978313 4.916923,9.06119 5.323691,8.890745 5.723296,8.733735 6.1228988,8.57673 7.0000003,7.9999995 7.0000003,7.9999995 Z" style="opacity:0.4"/>
 <path d="m 8.7071075,8.7071063 c 0,0 1.0280138,0.212395 1.4215955,0.3839384 0.393585,0.1715403 0.801737,0.3386455 0.946744,0.6008573 0.145002,0.2622115 0.157155,0.462363 0.04101,0.732785 -0.116143,0.270421 -0.42135,0.57563 -0.691772,0.691771 -0.27042,0.116143 -0.4705741,0.103991 -0.7327838,-0.04101 C 9.4296907,10.930439 9.2625851,10.522288 9.0910446,10.128702 8.9195019,9.7351207 8.7071075,8.7071063 8.7071075,8.7071063 Z" style="opacity:0.4"/>
 <path style="opacity:0.4" d="m 7.2928942,7.2928929 c 0,0 -0.2123951,-1.0280137 -0.3839387,-1.4215952 C 6.7374153,5.4777125 6.5703103,5.0695606 6.3080981,4.9245528 6.0458867,4.7795514 5.8457352,4.7673983 5.5753136,4.883542 5.3048926,4.999685 4.9996834,5.3048913 4.8835425,5.575313 4.7673995,5.845734 4.7795518,6.0458876 4.924554,6.308097 5.0695611,6.5703098 5.4777123,6.7374154 5.8712986,6.908956 6.2648797,7.0804985 7.2928942,7.2928929 7.2928942,7.2928929 Z"/>
 <path style="opacity:0.4" d="m 7.2928937,8.7071063 c 0,0 -1.0280138,0.212395 -1.4215951,0.3839384 C 5.4777135,9.262585 5.0695613,9.4296902 4.9245539,9.691902 4.7795524,9.9541135 4.767399,10.154265 4.8835427,10.424687 c 0.1161427,0.270421 0.4213497,0.57563 0.691771,0.691771 0.270421,0.116143 0.4705746,0.103991 0.7327843,-0.04101 C 6.5703105,10.930439 6.7374161,10.522288 6.9089566,10.128702 7.0804993,9.7351207 7.2928937,8.7071063 7.2928937,8.7071063 Z"/>
 <path d="m 8.707107,7.2928929 c 0,0 0.2123951,-1.0280137 0.3839387,-1.4215952 C 9.2625859,5.4777125 9.4296909,5.0695606 9.6919031,4.9245528 9.9541145,4.7795514 10.154266,4.7673983 10.424688,4.883542 c 0.270421,0.116143 0.57563,0.4213493 0.691771,0.691771 0.116143,0.270421 0.10399,0.4705746 -0.04101,0.732784 C 10.93044,6.5703098 10.522289,6.7374154 10.128703,6.908956 9.7351215,7.0804985 8.707107,7.2928929 8.707107,7.2928929 Z" style="opacity:0.4"/>
</svg>
